svg/wfcd.svg

<svg xmlns="http://www.w3.org/2000/svg" width="147" height="256" viewBox="0 0 782 1366">
    <path d="M390.6.9c.3.27.9.81 1.2 1.09 72.13 89.71 144.27 179.43 216.4 269.15-57.64 71.73-115.39 143.39-172.96 215.19 3.41 5.13 7.82 9.83 11.6 14.8 14.78 18.38 29.56 36.77 44.34 55.14 38.53-47.94 77.07-95.87 115.72-143.72 58.15 72.33 116.31 144.65 174.46 216.99-38.54 47.94-76.98 95.97-115.58 143.87 30.24 37.69 60.56 75.32 90.82 112.99 2.29 3.15 5.34 6.04 7.14 9.34-124.21 156.4-248.6 312.67-372.92 468.98-124.37-156.39-248.75-312.77-373.12-469.16 32.73-40.72 65.5-81.41 98.19-122.16C77.27 725.52 38.86 677.47.31 629.54 58.44 557.2 116.62 484.9 174.75 412.55c38.67 47.83 77.2 95.77 115.72 143.72 18.74-23.23 37.4-46.53 56.13-69.77-57.68-71.81-115.41-143.58-173.14-215.35 49.11-61.09 98.23-122.18 147.34-183.26C344.04 58.87 367.5 30.02 390.6.9m.1 110.05c-42.59 53.25-85.43 106.3-128.12 159.47 42.8 53.44 85.61 106.87 128.42 160.3 42.75-53.37 85.53-106.72 128.25-160.11-42.9-53.17-85.49-106.62-128.55-159.66M88.81 629.5c23.66 29.72 47.59 59.23 71.35 88.87 28.73-35.72 57.45-71.44 86.16-107.17-23.78-29.59-47.56-59.18-71.36-88.76-28.74 35.67-57.36 71.43-86.15 107.06m517.88-107.06c-23.77 29.6-47.58 59.16-71.35 88.76 28.71 35.72 57.45 71.43 86.15 107.17 23.82-29.56 47.56-59.18 71.38-88.74-28.7-35.76-57.43-71.48-86.18-107.19M136.52 897.17c84.75 106.59 169.57 213.12 254.3 319.73 84.77-106.59 169.57-213.15 254.33-319.75-84.78-106.57-169.56-213.14-254.33-319.72-84.72 106.61-169.55 213.15-254.3 319.74"/>
    <path d="M217.5 897.2c57.77-72.65 115.59-145.25 173.32-217.92 57.77 72.59 115.46 145.25 173.3 217.79-57.64 72.75-115.55 145.29-173.29 217.97-57.78-72.62-115.49-145.28-173.33-217.84"/>
</svg>

<svg width="147px" height="256px" viewBox="0 0 782 1366" version="1.1" xmlns="http://www.w3.org/2000/svg"><path d=" M 390.60 0.90 C 390.90 1.17 391.50 1.71 391.80 1.99 C 463.93 91.70 536.07 181.42 608.20 271.14 C 550.56 342.87 492.81 414.53 435.24 486.33 C 438.65 491.46 443.06 496.16 446.84 501.13 C 461.62 519.51 476.40 537.90 491.18 556.27 C 529.71 508.33 568.25 460.40 606.90 412.55 C 665.05 484.88 723.21 557.20 781.36 629.54 C 742.82 677.48 704.38 725.51 665.78 773.41 C 696.02 811.10 726.34 848.73 756.60 886.40 C 758.89 889.55 761.94 892.44 763.74 895.74 C 639.53 1052.14 515.14 1208.41 390.82 1364.72 C 266.45 1208.33 142.07 1051.95 17.70 895.56 C 50.43 854.84 83.20 814.15 115.89 773.40 C 77.27 725.52 38.86 677.47 0.31 629.54 C 58.44 557.20 116.62 484.90 174.75 412.55 C 213.42 460.38 251.95 508.32 290.47 556.27 C 309.21 533.04 327.87 509.74 346.60 486.50 C 288.92 414.69 231.19 342.92 173.46 271.15 C 222.57 210.06 271.69 148.97 320.80 87.89 C 344.04 58.87 367.50 30.02 390.60 0.90 M 390.70 110.95 C 348.11 164.20 305.27 217.25 262.58 270.42 C 305.38 323.86 348.19 377.29 391.00 430.72 C 433.75 377.35 476.53 324.00 519.25 270.61 C 476.35 217.44 433.76 163.99 390.70 110.95 M 88.81 629.50 C 112.47 659.22 136.40 688.73 160.16 718.37 C 188.89 682.65 217.61 646.93 246.32 611.20 C 222.54 581.61 198.76 552.02 174.96 522.44 C 146.22 558.11 117.60 593.87 88.81 629.50 M 606.69 522.44 C 582.92 552.04 559.11 581.60 535.34 611.20 C 564.05 646.92 592.79 682.63 621.49 718.37 C 645.31 688.81 669.05 659.19 692.87 629.63 C 664.17 593.87 635.44 558.15 606.69 522.44 M 136.52 897.17 C 221.27 1003.76 306.09 1110.29 390.82 1216.90 C 475.59 1110.31 560.39 1003.75 645.15 897.15 C 560.37 790.58 475.59 684.01 390.82 577.43 C 306.10 684.04 221.27 790.58 136.52 897.17 Z" /><path d=" M 217.50 897.20 C 275.27 824.55 333.09 751.95 390.82 679.28 C 448.59 751.87 506.28 824.53 564.12 897.07 C 506.48 969.82 448.57 1042.36 390.83 1115.04 C 333.05 1042.42 275.34 969.76 217.50 897.20 Z" /></svg>
